svgs/identiconizer.svg

<svg xmlns="http://www.w3.org/2000/svg" viewBox="0 0 192 192"><path d="M16.001 159.053v-16.917H45.22v-29.22H16.001V45.25H45.22V16.03h101.5v29.104l14.226.442 14.225.443.415 33.448.414 33.449-15.024-.003-15.025-.003.49 14.614.49 14.613h29.009v33.833h-33.833v-29.009l-14.614-.49-14.613-.49.003 14.995.003 14.994H79.053v-29.22h-29.22v29.22H16v-16.917Zm63.053-94.58v-14.61h-29.22v29.22h29.22Zm63.053 0v-14.61h-29.22v29.22h29.22Z"/></svg>

<svg
    xmlns="http://www.w3.org/2000/svg"
    viewBox="0 0 192 192"
    id="vector">
    <path
        id="path"
        d="M 16.001 159.053 L 16.001 142.136 L 45.22 142.136 L 45.22 112.916 L 16.001 112.916 L 16.001 45.25 L 45.22 45.25 L 45.22 16.03 L 146.72 16.03 L 146.72 45.134 L 160.946 45.576 L 175.171 46.019 L 175.586 79.467 L 176 112.916 L 160.976 112.913 L 145.951 112.91 L 146.441 127.524 L 146.931 142.137 L 175.94 142.137 L 175.94 175.97 L 142.107 175.97 L 142.107 146.961 L 127.493 146.471 L 112.88 145.981 L 112.883 160.976 L 112.886 175.97 L 79.053 175.97 L 79.053 146.75 L 49.833 146.75 L 49.833 175.97 L 16 175.97 L 16 159.053 Z M 79.054 64.473 L 79.054 49.863 L 49.834 49.863 L 49.834 79.083 L 79.054 79.083 Z M 142.107 64.473 L 142.107 49.863 L 112.887 49.863 L 112.887 79.083 L 142.107 79.083 Z"
        fill="#000000"
        stroke-width="12"/>
</svg>
